X:1
T: James Kerr's Hornpipe
C:
R:Reel
Q: 232
K:Bb
M:4/4
L:1/8
|:B,2 DF BA cB|G2 ce gf ag|f=e gf _ec Ac|BA BG FE DC|
B,2 DF BA cB|G2 ce gf ag|1ec AF =EF GA|BF dc B4:|2fe cA F^F GA|B2 BA Bd cB|
K:F
|:A2 A,C EF Ac|B2 B,D FB df|e2 CE Fc eg|fe fg fd cB|
A2 A,C EF Ac|B2 B,D FB df|ec =Bc ge bg|1fe ge f4:|2ef ag f4||
